app/images/icon/top-arrow.svg

<svg width="56" height="12" viewBox="0 0 56 12" fill="none" xmlns="http://www.w3.org/2000/svg">
<path d="M55.535 6.90873C55.83 6.61788 55.8333 6.14302 55.5424 5.8481L50.8027 1.04213C50.5118 0.747209 50.0369 0.743914 49.742 1.03477C49.4471 1.32562 49.4438 1.80048 49.7347 2.0954L53.9478 6.36738L49.6758 10.5805C49.3809 10.8713 49.3776 11.3462 49.6684 11.6411C49.9593 11.936 50.4341 11.9393 50.7291 11.6485L55.535 6.90873ZM0.994796 6.74998L55.0032 7.12472L55.0136 5.62476L1.0052 5.25002L0.994796 6.74998Z" fill="#0037A1"/>
</svg>

<svg width="56" height="12" fill="none" xmlns="http://www.w3.org/2000/svg">
    <path d="M55.535 6.909a.75.75 0 0 0 .007-1.06l-4.74-4.807a.75.75 0 0 0-1.067 1.053l4.213 4.272-4.272 4.214a.75.75 0 0 0 1.053 1.068l4.806-4.74ZM.995 6.75l54.008.375.01-1.5L1.006 5.25l-.01 1.5Z" fill="#0037A1"/>
</svg>
